modules/hawcons-filled/icons/icon-96-document-file-xls.svg

<?xml version="1.0" encoding="UTF-8" standalone="no"?>
<svg width="32px" height="32px" viewBox="0 0 32 32" version="1.1" xmlns="http://www.w3.org/2000/svg" xmlns:xlink="http://www.w3.org/1999/xlink" xmlns:sketch="http://www.bohemiancoding.com/sketch/ns">
    <!-- Generator: Sketch 3.0.3 (7891) - http://www.bohemiancoding.com/sketch -->
    <title>icon 96 document file xls</title>
    <desc>Created with Sketch.</desc>
    <defs></defs>
    <g id="Page-1" stroke="none" stroke-width="1" fill="none" fill-rule="evenodd" sketch:type="MSPage">
        <g id="icon-96-document-file-xls" sketch:type="MSArtboardGroup" fill="#929292">
            <path d="M21,26 L21,28.0025781 C21,29.1090746 20.1057238,30 19.0025781,30 L3.99742191,30 C2.89092539,30 2,29.1012878 2,27.9926701 L2,5.00732994 C2,3.89833832 2.8992496,3 4.0085302,3 L14,3 L14,9.00189865 C14,10.1132936 14.8980806,11 16.0059191,11 L21,11 L21,13 L12.0068483,13 C10.3462119,13 9,14.3422643 9,15.9987856 L9,23.0012144 C9,24.6573979 10.3359915,26 12.0068483,26 L21,26 L21,26 Z M15,3 L15,8.99707067 C15,9.55097324 15.4509752,10 15.990778,10 L21,10 L15,3 L15,3 Z M11.9945615,14 C10.8929956,14 10,14.9001762 10,15.992017 L10,23.007983 C10,24.1081436 10.9023438,25 11.9945615,25 L29.0054385,25 C30.1070044,25 31,24.0998238 31,23.007983 L31,15.992017 C31,14.8918564 30.0976562,14 29.0054385,14 L11.9945615,14 L11.9945615,14 Z M14,19.5 L12,16 L13,16 L14.5,18.625 L16,16 L17,16 L15,19.5 L17,23 L16,23 L14.5,20.375 L13,23 L12,23 L14,19.5 L14,19.5 Z M23,22 L23,23 L18,23 L18,16 L19,16 L19,22 L23,22 L23,22 Z M26.0048815,16 C24.897616,16 24,16.8877296 24,18 C24,19.1045695 24.8877296,20 26,20 L26.9906311,20 C27.5480902,20 28,20.4438648 28,21 C28,21.5522847 27.5573397,22 27.0010434,22 L25.9989566,22 C25.4472481,22 25,21.543716 25,21.0044713 L25,20.9931641 L24,20.9931641 L24,20.998921 C24,22.1040864 24.8938998,23 26.0048815,23 L26.9951185,23 C28.102384,23 29,22.1122704 29,21 C29,19.8954305 28.1122704,19 27,19 L26.0093689,19 C25.4519098,19 25,18.5561352 25,18 C25,17.4477153 25.4426603,17 25.9989566,17 L27.0010434,17 C27.5527519,17 28,17.453186 28,18 L29,18 C29,16.8954305 28.1061002,16 26.9951185,16 L26.0048815,16 L26.0048815,16 Z" id="document-file-xls" sketch:type="MSShapeGroup"></path>
        </g>
    </g>
</svg>

<svg width="32" height="32" viewBox="0 0 32 32" xmlns="http://www.w3.org/2000/svg"><path d="M21 26v2.003A1.995 1.995 0 0 1 19.003 30H3.997A2 2 0 0 1 2 27.993V5.007C2 3.898 2.9 3 4.009 3H14v6.002c0 1.111.898 1.998 2.006 1.998H21v2h-8.993A3.003 3.003 0 0 0 9 15.999V23A2.996 2.996 0 0 0 12.007 26H21zM15 3v5.997c0 .554.451 1.003.99 1.003H21l-6-7zm-3.005 11C10.893 14 10 14.9 10 15.992v7.016A2 2 0 0 0 11.995 25h17.01C30.107 25 31 24.1 31 23.008v-7.016A2 2 0 0 0 29.005 14h-17.01zM14 19.5L12 16h1l1.5 2.625L16 16h1l-2 3.5 2 3.5h-1l-1.5-2.625L13 23h-1l2-3.5zm9 2.5v1h-5v-7h1v6h4zm3.005-6A1.998 1.998 0 0 0 24 18c0 1.105.888 2 2 2h.99c.558 0 1.01.444 1.01 1 0 .552-.443 1-.999 1h-1.002c-.552 0-.999-.456-.999-.996v-.01h-1v.005A2 2 0 0 0 26.005 23h.99A1.998 1.998 0 0 0 29 21c0-1.105-.888-2-2-2h-.99c-.558 0-1.01-.444-1.01-1 0-.552.443-1 .999-1h1.002c.552 0 .999.453.999 1h1a2 2 0 0 0-2.005-2h-.99z" fill="#929292" fill-rule="evenodd"/></svg>
